X: 1
T: The Devil's Dream
R: hornpipe
M: 4/4
L: 1/8
K: Amaj
e2 |"A"eaga eaga |eaga fedc |"Bm"dfBf dfBf |dfBf (gfed )|"A"
eaga eaga |eaga fedc |"D"dfed "A"cA"E"BG |"E"E2 "A"A2 A2 :|
|: e2 |"A"ceAe ceAe |ceAe fedc |"Bm"dfBf dfBf |dfBf afed |"A"
ceAe ceAe |ceAe fedc |"D"dfed "A"cA"E"BG |"E"E2 "A"A2 A2 :|
|: e2 |"A"cAEA cAeA |cAeA fedc |"bm"dBGB dBfe |"D"defg "E"agfe |"A"
cAEA cAeA |cAce fedc |"D"dfed "A"cA"E"BG |"E"E2 "A"A2 A2 :|


Tune 259	Setting 24295

